X:1
T:Title
L:1/8
M:6/8
K:Ab
V:1 treble nm="Grand Piano"
V:1
 z3 C2 F | A2 G F2 E | F3- F2 E | D6- | D3 F2 G | A2 B A2 G | G6- | G3 E2 F | G2 G G2 G | %9
 G3- G2 F | E6- | E3 F2 E | D2 E D2 C | C6- | C3 A2 B | c2 c c2 B | c6 | G6- | G3 G2 A | %19
 B2 c B2 A | G6- | G3 A2 G | F2 F G2 F | E2 E F2 E | D2 F E2 D | C3 A2 G | F2 F G2 F | E2 E F2 E | %28
 D2 F G2 A | B6- | B3- B2 C | A3 G2 F | G3 E2 E | G3 F2 E | F3 D2 B | B3 B2 B | B3 c2 d | c6- | %38
 c3- c2 C | A3 G2 F | G3 E2 E | G3 F2 E | F3 D2 D | G3 F2 E | D3 B,2 D | C6- | C3 z3 |] %47

